src/images/svg/github.svg

<svg height="101" viewBox="0 0 100 101" width="100" xmlns="http://www.w3.org/2000/svg"><path d="m50 1.27617187c-27.625 0-50 23.08710933-50 51.56250003 0 22.7874023 14.325 42.1104492 34.1875 48.9199221 2.5.486621 3.415625-1.108594 3.415625-2.4782229 0-1.2246094-.040625-4.4698242-.0625-8.765625-13.909375 3.1098633-16.840625-6.919043-16.840625-6.919043-2.275-5.9522461-5.5625-7.5410156-5.5625-7.5410156-4.528125-3.196875.35-3.1324219.35-3.1324219 5.021875.3609375 7.659375 5.3109375 7.659375 5.3109375 4.459375 7.8858399 11.703125 5.6074219 14.5625 4.2893555.45-3.3354492 1.7375-5.6074219 3.165625-6.8964844-11.103125-1.2890625-22.775-5.7234375-22.775-25.4815429 0-5.6299805 1.9375-10.2254883 5.146875-13.8348633-.5625-1.3019532-2.25-6.5452149.4375-13.6479492 0 0 4.1875-1.3825196 13.75 5.2851562 4-1.1472656 8.25-1.7144531 12.5-1.7402344 4.25.0257813 8.5.5929688 12.5 1.7402344 9.5-6.6676758 13.6875-5.2851562 13.6875-5.2851562 2.6875 7.1027343 1 12.345996.5 13.6479492 3.1875 3.609375 5.125 8.2081054 5.125 13.8348633 0 19.8096679-11.6875 24.1699218-22.8125 25.4364257 1.75 1.546875 3.375 4.7083008 3.375 9.5390625 0 6.8997071-.0625 12.4426758-.0625 14.1184571 0 1.3535154.875 2.9648434 3.4375 2.4492184 20.003125-6.7643552 34.315625-26.1002927 34.315625-48.8522458 0-28.4753906-22.3875-51.56249998-50-51.56249998z"/></svg>

<?xml version="1.0" encoding="UTF-8"?>
<svg width="100px" height="101px" viewBox="0 0 100 101" version="1.1" fill="#000000" xmlns="http://www.w3.org/2000/svg" xmlns:xlink="http://www.w3.org/1999/xlink">
    <title>github</title>
                <path d="M50,1.27617187 C22.375,1.27617187 0,24.3632812 0,52.8386719 C0,75.6260742 14.325,94.9491211 34.1875,101.758594 C36.6875,102.245215 37.603125,100.65 37.603125,99.2803711 C37.603125,98.0557617 37.5625,94.8105469 37.540625,90.5147461 C23.63125,93.6246094 20.7,83.5957031 20.7,83.5957031 C18.425,77.643457 15.1375,76.0546875 15.1375,76.0546875 C10.609375,72.8578125 15.4875,72.9222656 15.4875,72.9222656 C20.509375,73.2832031 23.146875,78.2332031 23.146875,78.2332031 C27.60625,86.119043 34.85,83.840625 37.709375,82.5225586 C38.159375,79.1871094 39.446875,76.9151367 40.875,75.6260742 C29.771875,74.3370117 18.1,69.9026367 18.1,50.1445313 C18.1,44.5145508 20.0375,39.919043 23.246875,36.309668 C22.684375,35.0077148 20.996875,29.7644531 23.684375,22.6617188 C23.684375,22.6617188 27.871875,21.2791992 37.434375,27.946875 C41.434375,26.7996094 45.684375,26.2324219 49.934375,26.2066406 C54.184375,26.2324219 58.434375,26.7996094 62.434375,27.946875 C71.934375,21.2791992 76.121875,22.6617188 76.121875,22.6617188 C78.809375,29.7644531 77.121875,35.0077148 76.621875,36.309668 C79.809375,39.919043 81.746875,44.5177734 81.746875,50.1445313 C81.746875,69.9541992 70.059375,74.3144531 58.934375,75.580957 C60.684375,77.127832 62.309375,80.2892578 62.309375,85.1200195 C62.309375,92.0197266 62.246875,97.5626953 62.246875,99.2384766 C62.246875,100.591992 63.121875,102.20332 65.684375,101.687695 C85.6875,94.9233398 100,75.5874023 100,52.8354492 C100,24.3600586 77.6125,1.27294922 50,1.27294922 L50,1.27617187 Z" id="Path"></path>
</svg>
